!!!COM: Henri Reber
!!!CNT: Francais
!!!TXO: Francais
!!!OTL: Chanson du Pays
!!!LYR: Auguste Brizeux 
!!!ENC: Jacob Pegg
!!!ODT: 1837/
!!!YOR: Romantic French Song 1830-1870, David Tunley, ed., New York: Garland Publishing, Inc., 1995, vol. 3
!!NB: Vocal melody and text only encoded.
!!NB: First instance of melodic material only encoded.
**kern	**silbe
*clef G2	*
*k[]	*
*M2/4	*
=5	=5
{4e	{De\s
8a	que
8b	la
=6	=6
(8cc	grive
8b)	est
8a	e/-
8b	-veil-
=7	=7
(4cc	-le/e,
8b)}	|}
8r	.
=8	=8
{4dd	{Sur
8b	cet-
8cc	-te
=9	=9
8a	lande
8b	en-
8cc	-cor
8a	mouil-
=10	=10
[4b	-le/e
8b]}	|}
8r	.
=11	=11
{4b	{Je
8b	viens
8b	m'as-
=12	=12
2b}	-seoir}
=13	=13
{4b	{Jus-
8cc	-ques
8b	au
=14	=14
4a}	soir:}
4r	.
=15	=15
{4b	{Grand'
8.e	me\-
16e	-re,
=16	=16
8b	de
8b	qui
8cc	je
(16b	me
16a)	|
=17	=17
4b	ca-
8b}	-che,}
8r	.
=18	=18
{8cc	{Dit:
16r	.
16cc	lo-
4b	-i2e
=19	=19
8.a	ai-
16g#	-me
8a	trop
8b	sa
=20	=20
(8g#	va-
8b)	|
4b}	-che.}
=21	=21
{2ee	{Oh!
=22	=22
8b	nen-
8cc	-ni,
8.b}	da!}
{16b	{Mais
=23	=23
(8dd	J'ai-
16cc)	|
16b	-me
8a	la
8b	pe-
=24	=24
8a	-tite
8g#	An-
[4a	-na.
=25	=25
2a_	|
=26	=26
4a]}	|}
4r	.
*-	*-
